T: Barony, The
M: 9/8
L: 1/8
K: Dmaj
|: FAA FAA FDD | FAA FAA B2 A | |: FAA dBd AFD | FAA dBd A2 G | ~ | BAF EFA D3- | D3 |]
